icons/4_Outdated/AngelList bg.var.svg

<svg width="1024" height="1024" viewBox="0 0 1024 1024" fill="none" xmlns="http://www.w3.org/2000/svg">
<g clip-path="url(#clip0_3_743)">
<path d="M512 1024C794.77 1024 1024 794.77 1024 512C1024 229.23 794.77 0 512 0C229.23 0 0 229.23 0 512C0 794.77 229.23 1024 512 1024Z" fill="#8C72BD"/>
<path d="M623.6 474.402C644.7 478.402 659.6 487.302 668.3 501.102C677 514.902 681.3 536.702 681.3 566.502C681.3 625.602 663.5 673.902 628 711.602C592.5 749.202 547.1 768.002 491.7 768.002C469.9 768.002 448.7 764.102 428.2 756.202C407.7 748.302 390 737.402 375.3 723.302C358.4 707.802 345.8 691.502 337.3 674.202C328.9 657.002 324.6 639.302 324.6 621.302C324.6 601.102 328.9 585.602 337.6 574.502C346.3 563.502 360 556.002 378.7 552.002C375.2 543.802 372.6 536.902 371 531.302C369.4 525.702 368.5 521.302 368.5 518.302C368.5 507.702 374.1 497.002 385.2 485.902C396.3 474.902 406.8 469.402 416.7 469.402C420.9 469.402 425.4 470.202 430.1 471.702C434.8 473.202 440.2 475.702 446.3 479.302C428.2 428.202 415.1 388.702 406.9 361.002C398.7 333.202 394.6 314.102 394.6 303.502C394.6 289.002 398.3 277.402 405.9 268.902C413.4 260.302 423.6 256.102 436.5 256.102C458.5 256.102 486.4 305.302 520.2 403.802C526.1 420.702 530.5 433.702 533.6 442.802C536.2 435.502 539.8 425.202 544.5 411.902C578.3 314.402 607.3 265.602 631.7 265.602C643.7 265.602 653.2 269.602 660.4 277.702C667.6 285.802 671.1 296.602 671.1 310.202C671.1 320.502 667.2 339.402 659.3 366.802C651.5 394.202 639.6 430.102 623.6 474.402ZM371.8 617.902C375.1 621.902 379.7 627.702 385.5 635.502C401 656.802 415.3 667.502 428.4 667.502C432.8 667.502 436.8 666.102 440.4 663.302C443.9 660.502 445.7 657.602 445.7 654.502C445.7 651.002 443.4 645.102 438.7 636.902C434 628.702 427.6 619.402 419.4 609.102C410 597.102 402.2 588.402 396 582.902C389.8 577.402 384.8 574.602 381.1 574.602C372.9 574.602 365.3 579.002 358.4 587.802C351.5 596.602 348 607.002 348 618.902C348 628.502 350.4 639.202 355.2 651.102C360 662.902 367 674.802 376.1 686.802C389.9 705.302 407.1 719.602 427.6 729.502C448.1 739.502 470.8 744.402 495.6 744.402C541.3 744.402 579.6 727.302 610.4 693.202C641.2 659.102 656.6 616.402 656.6 565.002C656.6 549.302 655.4 536.802 653.1 527.502C650.8 518.202 646.9 511.502 641.5 507.302C631.9 499.302 613.2 492.202 585.4 485.802C557.6 479.502 528.6 476.302 498.4 476.302C490 476.302 484 477.702 480.5 480.502C477 483.302 475.2 488.102 475.2 494.902C475.2 510.802 484.1 522.402 501.9 529.502C519.7 536.702 548.5 540.202 588.4 540.202H602.8C606.1 540.202 608.7 541.402 610.7 543.902C612.7 546.402 614 550.102 614.7 555.002C610.7 558.802 602.5 563.002 590.1 567.802C577.7 572.602 568.2 577.402 561.6 582.002C547.5 592.302 536.2 604.602 527.7 618.702C519.1 632.902 514.9 646.302 514.9 659.002C514.9 666.702 516.7 676.102 520.4 687.002C524 697.902 525.9 704.602 525.9 707.202V709.702L525.2 712.902C514.9 712.202 506.7 706.202 500.8 694.802C494.8 683.402 491.8 668.202 491.8 649.302V646.102C489.9 647.702 488.1 648.902 486.3 649.602C484.5 650.302 482.6 650.702 480.5 650.702C478.4 650.702 476.4 650.502 474.5 650.202C472.6 649.802 470.5 649.302 468.2 648.602C468.9 651.202 469.4 653.702 469.8 656.202C470.2 658.702 470.3 660.602 470.3 662.002C470.3 670.702 466.9 678.102 460.1 684.302C453.3 690.502 445.2 693.602 435.8 693.602C421 693.602 406 686.402 390.8 672.002C375.6 657.602 367.9 643.502 367.9 629.602C367.9 627.002 368.2 624.702 368.8 622.702C369.4 621.002 370.4 619.302 371.8 617.902ZM477.3 626.302C481.3 626.302 484.9 624.502 488.2 620.802C491.5 617.202 493.1 613.202 493.1 609.002C493.1 604.502 489.9 594.202 483.4 577.902C476.9 561.602 468.9 545.602 459.3 529.902C452.3 518.202 445.4 509.302 438.6 503.302C431.8 497.302 425.4 494.302 419.3 494.302C414.4 494.302 408.9 497.402 402.9 503.602C396.9 509.802 393.9 515.602 393.9 521.002C393.9 526.602 396.8 535.102 402.7 546.302C408.6 557.602 416.4 569.502 426.3 582.202C436.6 596.002 446.3 606.802 455.5 614.602C464.7 622.402 471.9 626.302 477.3 626.302ZM511.8 456.402L473.8 346.702C464 318.802 456.3 300.602 450.9 292.002C445.5 283.402 439.6 279.202 433.3 279.202C428.4 279.202 424.4 281.102 421.3 284.802C418.3 288.602 416.7 293.602 416.7 299.902C416.7 310.702 420.8 329.402 429 356.202C437.2 382.902 449.5 418.002 465.9 461.302C467.3 458.702 469.3 456.902 471.9 455.802C474.5 454.702 478 454.202 482.5 454.202C483.9 454.202 486.7 454.302 490.9 454.602C495.3 454.902 502.2 455.502 511.8 456.402ZM551.5 563.002C541.4 562.502 531.9 561.502 522.8 559.802C513.8 558.202 505.2 555.802 497 552.802C500.7 560.302 504.1 567.802 507 575.302C509.9 582.802 512.3 590.202 514.2 597.502C519.8 590.502 525.7 584.102 532 578.302C538.2 572.502 544.7 567.402 551.5 563.002ZM598.3 468.402C614 425.702 626.3 390.502 635 362.702C643.8 334.902 648.2 317.902 648.2 311.502C648.2 304.702 646.7 299.402 643.8 295.702C640.9 292.002 636.8 290.102 631.7 290.102C625.1 290.102 618.5 295.602 611.7 306.502C604.9 317.402 597.4 334.902 589.2 359.102L554 460.702L598.3 468.402Z" fill="white"/>
</g>
<defs>
<clipPath id="clip0_3_743">
<rect width="1024" height="1024" fill="white"/>
</clipPath>
</defs>
</svg>

<svg width="1024" height="1024" fill="none" xmlns="http://www.w3.org/2000/svg"><g clip-path="url(#a)"><path d="M512 1024c282.77 0 512-229.23 512-512S794.77 0 512 0 0 229.23 0 512s229.23 512 512 512Z" fill="#8C72BD"/><path d="M623.6 474.402c21.1 4 36 12.9 44.7 26.7 8.7 13.8 13 35.6 13 65.4 0 59.1-17.8 107.4-53.3 145.1-35.5 37.6-80.9 56.4-136.3 56.4-21.8 0-43-3.9-63.5-11.8s-38.2-18.8-52.9-32.9c-16.9-15.5-29.5-31.8-38-49.1-8.4-17.2-12.7-34.9-12.7-52.9 0-20.2 4.3-35.7 13-46.8 8.7-11 22.4-18.5 41.1-22.5-3.5-8.2-6.1-15.1-7.7-20.7-1.6-5.6-2.5-10-2.5-13 0-10.6 5.6-21.3 16.7-32.4 11.1-11 21.6-16.5 31.5-16.5 4.2 0 8.7.8 13.4 2.3 4.7 1.5 10.1 4 16.2 7.6-18.1-51.1-31.2-90.6-39.4-118.3-8.2-27.8-12.3-46.9-12.3-57.5 0-14.5 3.7-26.1 11.3-34.6 7.5-8.6 17.7-12.8 30.6-12.8 22 0 49.9 49.2 83.7 147.7 5.9 16.9 10.3 29.9 13.4 39 2.6-7.3 6.2-17.6 10.9-30.9 33.8-97.5 62.8-146.3 87.2-146.3 12 0 21.5 4 28.7 12.1 7.2 8.1 10.7 18.9 10.7 32.5 0 10.3-3.9 29.2-11.8 56.6-7.8 27.4-19.7 63.3-35.7 107.6Zm-251.8 143.5c3.3 4 7.9 9.8 13.7 17.6 15.5 21.3 29.8 32 42.9 32 4.4 0 8.4-1.4 12-4.2 3.5-2.8 5.3-5.7 5.3-8.8 0-3.5-2.3-9.4-7-17.6-4.7-8.2-11.1-17.5-19.3-27.8-9.4-12-17.2-20.7-23.4-26.2-6.2-5.5-11.2-8.3-14.9-8.3-8.2 0-15.8 4.4-22.7 13.2-6.9 8.8-10.4 19.2-10.4 31.1 0 9.6 2.4 20.3 7.2 32.2 4.8 11.8 11.8 23.7 20.9 35.7 13.8 18.5 31 32.8 51.5 42.7 20.5 10 43.2 14.9 68 14.9 45.7 0 84-17.1 114.8-51.2 30.8-34.1 46.2-76.8 46.2-128.2 0-15.7-1.2-28.2-3.5-37.5s-6.2-16-11.6-20.2c-9.6-8-28.3-15.1-56.1-21.5-27.8-6.3-56.8-9.5-87-9.5-8.4 0-14.4 1.4-17.9 4.2-3.5 2.8-5.3 7.6-5.3 14.4 0 15.9 8.9 27.5 26.7 34.6 17.8 7.2 46.6 10.7 86.5 10.7h14.4c3.3 0 5.9 1.2 7.9 3.7s3.3 6.2 4 11.1c-4 3.8-12.2 8-24.6 12.8-12.4 4.8-21.9 9.6-28.5 14.2-14.1 10.3-25.4 22.6-33.9 36.7-8.6 14.2-12.8 27.6-12.8 40.3 0 7.7 1.8 17.1 5.5 28 3.6 10.9 5.5 17.6 5.5 20.2v2.5l-.7 3.2c-10.3-.7-18.5-6.7-24.4-18.1-6-11.4-9-26.6-9-45.5v-3.2c-1.9 1.6-3.7 2.8-5.5 3.5-1.8.7-3.7 1.1-5.8 1.1-2.1 0-4.1-.2-6-.5-1.9-.4-4-.9-6.3-1.6.7 2.6 1.2 5.1 1.6 7.6.4 2.5.5 4.4.5 5.8 0 8.7-3.4 16.1-10.2 22.3-6.8 6.2-14.9 9.3-24.3 9.3-14.8 0-29.8-7.2-45-21.6-15.2-14.4-22.9-28.5-22.9-42.4 0-2.6.3-4.9.9-6.9.6-1.7 1.6-3.4 3-4.8Zm105.5 8.4c4 0 7.6-1.8 10.9-5.5 3.3-3.6 4.9-7.6 4.9-11.8 0-4.5-3.2-14.8-9.7-31.1-6.5-16.3-14.5-32.3-24.1-48-7-11.7-13.9-20.6-20.7-26.6-6.8-6-13.2-9-19.3-9-4.9 0-10.4 3.1-16.4 9.3-6 6.2-9 12-9 17.4 0 5.6 2.9 14.1 8.8 25.3 5.9 11.3 13.7 23.2 23.6 35.9 10.3 13.8 20 24.6 29.2 32.4 9.2 7.8 16.4 11.7 21.8 11.7Zm34.5-169.9-38-109.7c-9.8-27.9-17.5-46.1-22.9-54.7-5.4-8.6-11.3-12.8-17.6-12.8-4.9 0-8.9 1.9-12 5.6-3 3.8-4.6 8.8-4.6 15.1 0 10.8 4.1 29.5 12.3 56.3 8.2 26.7 20.5 61.8 36.9 105.1 1.4-2.6 3.4-4.4 6-5.5 2.6-1.1 6.1-1.6 10.6-1.6 1.4 0 4.2.1 8.4.4 4.4.3 11.3.9 20.9 1.8Zm39.7 106.6c-10.1-.5-19.6-1.5-28.7-3.2-9-1.6-17.6-4-25.8-7 3.7 7.5 7.1 15 10 22.5 2.9 7.5 5.3 14.9 7.2 22.2 5.6-7 11.5-13.4 17.8-19.2 6.2-5.8 12.7-10.9 19.5-15.3Zm46.8-94.6c15.7-42.7 28-77.9 36.7-105.7 8.8-27.8 13.2-44.8 13.2-51.2 0-6.8-1.5-12.1-4.4-15.8-2.9-3.7-7-5.6-12.1-5.6-6.6 0-13.2 5.5-20 16.4-6.8 10.9-14.3 28.4-22.5 52.6l-35.2 101.6 44.3 7.7Z" fill="#fff"/></g><defs><clipPath id="a"><path fill="#fff" d="M0 0h1024v1024H0z"/></clipPath></defs></svg>
